X:1
T: The End of the Day
C:
R:Jig
Q:180
K:G
M:6/8
L:1/16
A2|B2A2B2 G4D2|G2A2G2 G2B2d2|c2B2A2 G2F2G2|A2d2e2 d2c2A2|B2A2B2 G4D2|G2A2G2 G2B2d2|g2f2e2 d2c2B2|A2F2A2 c2B2A2|
B2A2B2 G4D2|G2A2G2 G2B2d2|c2B2A2 G2F2G2|A2d2e2 d2c2A2|B2A2B2 G4D2|G2A2G2 G2B2d2|g2f2e2 d2c2B2|A2F2A2 c2B2A2|
B4d2 d2e2d2|d2B2d2 g2d2c2|B4d2 d2e2d2|e2c2e2 a2f2d2|B4d2 d2e2d2|d2e2d2 d2e2f2|g2f2e2 d2c2B2|A2F2A2 c2B2A2|
B4d2 d2e2d2|d2B2d2 g2d2c2|B4d2 d2e2d2|e2c2e2 a2f2d2|B4d2 d2e2d2|d2e2d2 d2e2f2|g2f2e2 d2c2B2|A2F2A2 c2B2A2||
